!!!OTL: Taohua kai lai hong shi hong
!!!ARE: Asia, China,ÿJiangxi, Anyuan
!! IV, 244
!!!SCT: C1683
!!!YEM: Copyright 1995, estate of Helmut Schaffrath.
**kern
*ICvox
*Ivox
!! Mixed meters:  2/4; 3/4
*M2/4
*k[]
*C:
{8.ee
16dd
8cc
8dd
=1
2ee
=2
8a
16a
16cc
8g
16e
16g
=3
2a}
=4
{8a
16a
16cc
8g
16e
16g
=5
2a}
=6
{8.e
16g
8a
8cc
=7
8g
8e
4g}
=8
{8.e
16g
8a
8cc
=9
8.g
16e
16g
16e
8g}
=10
{8.a
16g
16e
16g
8e
=11
8cc
8dd
16ee
16gg
8dd
=12
8.ee
16dd
16ee
16dd
8ee}
=13
{4a
4cc
=14
4a
4cc
=15
4ee
4gg
=16
*M3/4
8.ee
16dd
8.cc
16dd
16ee
16gg
8dd}
=17
*M2/4
{8r
4cc
16a
16g
=18
8.a
16cc
16a
16g
16e
16g
=19
2a}
=20
{4a
4cc
=21
4a
4cc
=22
8a
8g
8e
8g
=23
4.a
8cc
=24
8a
8g
8e
8g
=25
2a}
=26
{8.e
16g
8a
8cc
=27
8g
8e
4g}
=28
{8.e
16g
8a
8cc
=29
8.g
16e
16g
16e
8g}
=30
{8.a
16g
16e
16g
8e
=31
8.cc
16dd
16ee
16gg
8dd
=32
8.ee
16dd
16ee
16dd
8ee}
=33
{8cc
8a
8ee
8a
=34
8cc
8cc
8a
8cc
=35
8a
8cc
8g
16e
16g
=36
4a}
{8cc
8cc
=37
8a
8cc
8a
8cc
=38
8g
8a
8dd
8b
=39
2a}
==
!!!AGN: Xiaodiao, Chage, shuang qianshou
!!!AMT: irregular
!!!AIN: vox
!!!EED: Helmut Schaffrath
!!!EEV: 1.0
*-
